public/avatar/body/98.svg

<svg xmlns:xlink="http://www.w3.org/1999/xlink" height="82" width="84.85" xmlns="http://www.w3.org/2000/svg"><g transform="translate(37.4 42.25)"><use height="38" transform="translate(-11.95 -17.45)" width="32.05" xlink:href="#a"/><use height="38.95" transform="translate(-12.45 -17.95)" width="33.05" xlink:href="#b"/><use height="25.1" transform="translate(3.5 -.3)" width="19.1" xlink:href="#c"/><use height="25.1" transform="matrix(-1 0 0 1 5 -.3)" width="19.1" xlink:href="#c"/><use height="32.3" transform="translate(-6.95 -17.35)" width="21.75" xlink:href="#d"/></g><defs><use height="38" width="32.05" xlink:href="#e" id="a"/><use height="38.95" width="33.05" xlink:href="#f" id="b"/><use height="25.1" width="19.1" xlink:href="#g" id="c"/><path d="M27.35 7.4q2.15 4.15 3.55 8.75 1.45 4.7 1.15 9.5-.35 4.95-4.2 8.1-3.8 3.2-8.75 4.05l-2.6.2q-3.6 0-7.05-1.15-4.65-1.6-7.1-5.5Q-.2 27.4.05 23q.2-4.4 2-9.3Q3.85 8.75 7 5.05 10.1 1.3 14.7.1l1.8-.1q1.9.05 3.7.8 4.75 2.05 7.15 6.6" fill="#9e5400" fill-rule="evenodd" transform="translate(-.05)" id="e"/><path d="M27.35 7.4Q24.95 2.85 20.2.8 17.55-.3 14.7.1 10.1 1.3 7 5.05q-3.15 3.7-4.95 8.65-1.8 4.9-2 9.3-.25 4.4 2.3 8.35 2.45 3.9 7.1 5.5 4.65 1.55 9.65.95 4.95-.85 8.75-4.05 3.85-3.15 4.2-8.1.3-4.8-1.15-9.5-1.4-4.6-3.55-8.75Z" fill="none" stroke="#000" stroke-linecap="round" stroke-linejoin="round" transform="translate(.45 .5)" id="f"/><g id="g"><path d="M12.55 12.8q4.7-.55 2.95.95-1.3 1.1.55 3.8l2.05 3q-.3 1.5-6.9 2.85-6.8 1.45-8.9-.2l2.8-4.5 7.45-5.9Z" fill="none" stroke="#3b0000" stroke-linecap="round" stroke-linejoin="round" stroke-width="2"/><path d="M12.2 12.3q4.7-.55 2.95.95-1.3 1.1.55 3.8l2.05 3q-.3 1.5-6.9 2.85-6.8 1.45-8.9-.2l2.8-4.5 7.45-5.9" fill="#bd0000" fill-rule="evenodd" transform="translate(.35 .5)"/><path d="m5.35 18.25 1.9-1.45q.7-.8 2-1.1l3.45-.1q.25.4-1.85 1.8l-2.5 1.8q-.8.9-1.6 3.15-1.85 2.1-4.15.7-.7-.45.5-2.4 1.15-1.9 2.25-2.4" fill="#820000" fill-rule="evenodd" transform="translate(.35 .5)"/><path d="m7 21.25-.55-2.85q8-4.5 7.05-2.15-.9 2.3-6.5 5" fill="#820000" fill-rule="evenodd" transform="translate(.35 .5)"/><path d="M8.25 11.7q-.95 1.1-3.35 1.75-.45.4-1.15 1.75-.6 1.2-1.4 1.65-1.05.55-2.35.75V8.15h.4q2.2 0 2.6 1.4.4-1.65 2.55-2.4 2.25-.8 3.55.45 1.4 1.35-.85 4.1" fill="#703b00" fill-rule="evenodd" transform="translate(.35 .5)"/><path d="m7.6 8.7 1.45 1.55q1.55 1.85 1.85 3.4.95 4.9-10.7 4.9H.15v-1.8l1.5-.05L5 11.75 7.6 8.7" fill="#ffe200" fill-rule="evenodd" transform="translate(.35 .5)"/><path d="m5.8 15.55-.45 2.95-5.4-.05v-2.8l5.85-.1" fill="#bd0000" fill-rule="evenodd" transform="translate(.35 .5)"/><path d="m1.8 18.45-2.15-.1v-1.4h6.7q-.1 1.45-3.9 1.5H1.8" fill="#820000" fill-rule="evenodd" transform="translate(.35 .5)"/><path d="m.4 18.6 3.6-.05" fill="none" stroke="#3b0000" stroke-linecap="round" stroke-linejoin="round" transform="translate(.35 .5)"/><path d="m17.15 5 .1 1.2-.1.85q-.25 2.3-1.6 4.75-.55 2.85-1.3 4.25Q13 18.7 8 19.45l-3.4.35q-.8.05-.8-.4l.55-3q.35-2.3 3.45-6.7 1.8-2.6 1.15-2.05l4.9-4.5.15.05q.5-.5.85-1.4L15.5.2 17.15 5" fill="#ff6b00" fill-rule="evenodd" transform="translate(.35 .5)"/><path d="M15.5.8q-.9 9-2.4 11.75-2.25 4.15-5.25 3.15L15.5.8" fill="#c95500" fill-rule="evenodd" transform="translate(.35 .5)"/><path d="M15.5.8q-.9 9-2.4 11.75-2.25 4.15-5.25 3.15L15.5.8Z" fill="none" stroke="#c95500" stroke-linecap="round" stroke-linejoin="round" transform="translate(.35 .5)"/><path d="M7.3 11.75q-.65-.55-.1-.95 2.4-1.55 2.6-.8l-.45 2.15q-.05.4 1.85.75 1.8.35 1.65.65-.9 2-2.9 3.25-1.9 1.25-2.95.65-.8-.4-1.9-2.9l2.25-1.9q.6-.3-.05-.9" fill="#c95500" fill-rule="evenodd" transform="translate(.35 .5)"/><path d="M15.6 0q-.1 8.3-4.85 13.55-2.4 2.65-4.2.9l-1.3-2.3Q7.3 8.6 9.5 6.95q3-2.25 6.1-6.95" fill="#ffe200" fill-rule="evenodd" transform="translate(.35 .5)"/><path d="M7.3 11.05 5.1 14l2.15-3.3v.05l.05.3" fill="#ffe200" fill-rule="evenodd" transform="translate(.35 .5)"/><path d="m15.6 0 .9 3.75q.3 3.65.1 4.9M4 18.55l.1 1.1m10.9-4.7.5-1.65" fill="none" stroke="#5c2700" stroke-linecap="round" stroke-linejoin="round" transform="translate(.35 .5)"/><path d="m4.95 12.65.55 1.25" fill="none" stroke="#c7a03e" stroke-linecap="round" stroke-linejoin="round" transform="translate(.35 .5)"/><path d="M2.6 11.05Q5.75 9.4 8.85 7.7" fill="none" stroke="#fcfcfc" stroke-linecap="round" stroke-linejoin="round" transform="translate(.35 .5)"/><path d="M5.25 11.25q.5-1.85 2-3.1t5.2-3.85" fill="none" stroke="#b87f41" stroke-linecap="round" stroke-linejoin="round" transform="translate(.35 .5)"/><path d="M5 11.95q.85-1.85 3.85-4.25Q13.6 3.95 15.6 0" fill="none" stroke="#fffbdb" stroke-linecap="round" stroke-linejoin="round" transform="translate(.35 .5)"/><path d="M6.5 20.3q5.95-.8 7.35-3.25L16 12.7" fill="none" stroke="#820000" stroke-linecap="round" stroke-linejoin="round" transform="translate(.35 .5)"/><path d="M5.35 13.45q1.25 3.35 3.65 2 2.75-1.65 5.25-6.75Q16 5.05 15.5.8" fill="none" stroke="#7a3f26" stroke-linecap="round" stroke-linejoin="round" transform="translate(.35 .5)"/></g><g id="d" fill-rule="evenodd"><path d="m11.3-13.75-2.6-.95v-1.7q1.65.7 3.1 2l-.5.65m.55-.6.6.55 2.35 3.05-1.9-2-1.15-.75.1-.85m-15.75.6.05.85q-1.8 1.3-3.1 3.4.9-1.95 2.7-3.9l.35-.35m7.85-3.6h.15q2.45 0 4.55.95l-.75 1.5-3.05-.35-.9-2.1m-.15 0-.55 2.15-3.25.45-.8-1.3v1.55q-1.4.45-2.55 1.25l-.4-.65q3.35-3.35 7.55-3.45" transform="translate(6.95 17.35)"/><path d="M6.65 12.3q0 2.65-2.6 2.65-2.65 0-2.65-2.65 0-2.6 2.65-2.6 2.6 0 2.6 2.6" fill="#c7a600" transform="translate(6.95 17.35)"/><path d="M6.05 12.3q0 2-2 2t-2-2q0-2 2-2t2 2" fill="#fcfcfc" transform="translate(6.95 17.35)"/><path d="m3.85 13.95.15-.1-.4-.15q-.35-.35-.25-.8.15-.45 2.05-1.15.1 1.9-1.55 2.2" fill="#deaa00" transform="translate(6.95 17.35)"/></g></defs></svg>

<?xml version="1.0" encoding="UTF-8" standalone="no"?>
<svg xmlns:xlink="http://www.w3.org/1999/xlink" height="82.0px" width="84.85px" xmlns="http://www.w3.org/2000/svg">
  <g transform="matrix(1.0, 0.0, 0.0, 1.0, 37.4, 42.25)">
    <use height="38.0" transform="matrix(1.0, 0.0, 0.0, 1.0, -11.95, -17.45)" width="32.05" xlink:href="#sprite0"/>
    <use height="38.95" transform="matrix(1.0, 0.0, 0.0, 1.0, -12.45, -17.95)" width="33.05" xlink:href="#sprite1"/>
    <use height="25.1" transform="matrix(1.0, 0.0, 0.0, 1.0, 3.5, -0.3)" width="19.1" xlink:href="#sprite2"/>
    <use height="25.1" transform="matrix(-1.0, 0.0, 0.0, 1.0, 5.0, -0.3)" width="19.1" xlink:href="#sprite2"/>
    <use height="32.3" transform="matrix(1.0, 0.0, 0.0, 1.0, -6.95, -17.35)" width="21.75" xlink:href="#shape3"/>
  </g>
  <defs>
    <g id="sprite0" transform="matrix(1.0, 0.0, 0.0, 1.0, -0.05, 0.0)">
      <use height="38.0" transform="matrix(1.0, 0.0, 0.0, 1.0, 0.05, 0.0)" width="32.05" xlink:href="#shape0"/>
    </g>
    <g id="shape0" transform="matrix(1.0, 0.0, 0.0, 1.0, -0.05, 0.0)">
      <path d="M27.35 7.4 Q29.5 11.55 30.9 16.15 32.35 20.85 32.05 25.65 31.7 30.6 27.85 33.75 24.05 36.95 19.1 37.8 L16.5 38.0 Q12.9 38.0 9.45 36.85 4.8 35.25 2.35 31.35 -0.2 27.4 0.05 23.0 0.25 18.6 2.05 13.7 3.85 8.75 7.0 5.05 10.1 1.3 14.7 0.1 L16.5 0.0 Q18.4 0.05 20.2 0.8 24.95 2.85 27.35 7.4" fill="#9e5400" fill-rule="evenodd" stroke="none"/>
    </g>
    <g id="sprite1" transform="matrix(1.0, 0.0, 0.0, 1.0, 0.45, 0.5)">
      <use height="38.95" transform="matrix(1.0, 0.0, 0.0, 1.0, -0.45, -0.5)" width="33.05" xlink:href="#shape1"/>
    </g>
    <g id="shape1" transform="matrix(1.0, 0.0, 0.0, 1.0, 0.45, 0.5)">
      <path d="M27.35 7.4 Q24.95 2.85 20.2 0.8 17.55 -0.3 14.7 0.1 10.1 1.3 7.0 5.05 3.85 8.75 2.05 13.7 0.25 18.6 0.05 23.0 -0.2 27.4 2.35 31.35 4.8 35.25 9.45 36.85 14.1 38.4 19.1 37.8 24.05 36.95 27.85 33.75 31.7 30.6 32.05 25.65 32.35 20.85 30.9 16.15 29.5 11.55 27.35 7.4 Z" fill="none" stroke="#000000" stroke-linecap="round" stroke-linejoin="round" stroke-width="1.0"/>
    </g>
    <g id="sprite2" transform="matrix(1.0, 0.0, 0.0, 1.0, 0.35, 0.5)">
      <use height="25.1" transform="matrix(1.0, 0.0, 0.0, 1.0, -0.35, -0.5)" width="19.1" xlink:href="#shape2"/>
    </g>
    <g id="shape2" transform="matrix(1.0, 0.0, 0.0, 1.0, 0.35, 0.5)">
      <path d="M12.2 12.3 Q16.9 11.75 15.15 13.25 13.85 14.35 15.7 17.05 L17.75 20.05 Q17.45 21.55 10.85 22.9 4.05 24.35 1.95 22.7 L4.75 18.2 12.2 12.3 Z" fill="none" stroke="#3b0000" stroke-linecap="round" stroke-linejoin="round" stroke-width="2.0"/>
      <path d="M12.2 12.3 Q16.9 11.75 15.15 13.25 13.85 14.35 15.7 17.05 L17.75 20.05 Q17.45 21.55 10.85 22.9 4.05 24.35 1.95 22.7 L4.75 18.2 12.2 12.3" fill="#bd0000" fill-rule="evenodd" stroke="none"/>
      <path d="M5.35 18.25 L7.25 16.8 Q7.95 16.0 9.25 15.7 L12.7 15.6 Q12.95 16.0 10.85 17.4 L8.35 19.2 Q7.55 20.1 6.75 22.35 4.9 24.45 2.6 23.05 1.9 22.6 3.1 20.65 4.25 18.75 5.35 18.25" fill="#820000" fill-rule="evenodd" stroke="none"/>
      <path d="M7.0 21.25 L6.45 18.4 Q14.45 13.9 13.5 16.25 12.6 18.55 7.0 21.25" fill="#820000" fill-rule="evenodd" stroke="none"/>
      <path d="M8.25 11.7 Q7.3 12.8 4.9 13.45 4.45 13.85 3.75 15.2 3.15 16.4 2.35 16.85 1.3 17.4 0.0 17.6 L0.0 8.15 0.4 8.15 Q2.6 8.15 3.0 9.55 3.4 7.9 5.55 7.15 7.8 6.35 9.1 7.6 10.5 8.95 8.25 11.7" fill="#703b00" fill-rule="evenodd" stroke="none"/>
      <path d="M7.6 8.7 L9.05 10.25 Q10.6 12.1 10.9 13.65 11.85 18.55 0.2 18.55 L0.15 18.55 0.15 16.75 1.65 16.7 5.0 11.75 7.6 8.7" fill="#ffe200" fill-rule="evenodd" stroke="none"/>
      <path d="M5.8 15.55 L5.35 18.5 -0.05 18.45 -0.05 15.65 5.8 15.55" fill="#bd0000" fill-rule="evenodd" stroke="none"/>
      <path d="M1.8 18.45 L-0.35 18.35 -0.35 16.95 6.35 16.95 Q6.25 18.4 2.45 18.45 L1.8 18.45" fill="#820000" fill-rule="evenodd" stroke="none"/>
      <path d="M0.4 18.6 L4.0 18.55" fill="none" stroke="#3b0000" stroke-linecap="round" stroke-linejoin="round" stroke-width="1.0"/>
      <path d="M17.15 5.0 L17.25 6.2 17.15 7.05 Q16.9 9.35 15.55 11.8 15.0 14.65 14.25 16.05 13.0 18.7 8.0 19.45 L4.6 19.8 Q3.8 19.85 3.8 19.4 L4.35 16.4 Q4.7 14.1 7.8 9.7 9.6 7.1 8.95 7.65 L13.85 3.15 14.0 3.2 Q14.5 2.7 14.85 1.8 L15.5 0.2 17.15 5.0" fill="#ff6b00" fill-rule="evenodd" stroke="none"/>
      <path d="M15.5 0.8 Q14.6 9.8 13.1 12.55 10.85 16.7 7.85 15.7 L15.5 0.8" fill="#c95500" fill-rule="evenodd" stroke="none"/>
      <path d="M15.5 0.8 Q14.6 9.8 13.1 12.55 10.85 16.7 7.85 15.7 L15.5 0.8 Z" fill="none" stroke="#c95500" stroke-linecap="round" stroke-linejoin="round" stroke-width="1.0"/>
      <path d="M7.3 11.75 Q6.65 11.2 7.2 10.8 9.6 9.25 9.8 10.0 L9.35 12.15 Q9.3 12.55 11.2 12.9 13.0 13.25 12.85 13.55 11.95 15.55 9.95 16.8 8.05 18.05 7.0 17.45 6.2 17.05 5.1 14.55 L7.35 12.65 Q7.95 12.35 7.3 11.75" fill="#c95500" fill-rule="evenodd" stroke="none"/>
      <path d="M15.6 0.0 Q15.5 8.3 10.75 13.55 8.35 16.2 6.55 14.45 L5.25 12.15 Q7.3 8.6 9.5 6.95 12.5 4.7 15.6 0.0" fill="#ffe200" fill-rule="evenodd" stroke="none"/>
      <path d="M7.3 11.05 L5.1 14.0 7.25 10.7 7.25 10.75 7.3 11.05" fill="#ffe200" fill-rule="evenodd" stroke="none"/>
      <path d="M15.6 0.0 L16.5 3.75 Q16.8 7.4 16.6 8.65" fill="none" stroke="#5c2700" stroke-linecap="round" stroke-linejoin="round" stroke-width="1.0"/>
      <path d="M4.0 18.55 L4.1 19.65" fill="none" stroke="#5c2700" stroke-linecap="round" stroke-linejoin="round" stroke-width="1.0"/>
      <path d="M15.0 14.95 L15.5 13.3" fill="none" stroke="#5c2700" stroke-linecap="round" stroke-linejoin="round" stroke-width="1.0"/>
      <path d="M4.95 12.65 L5.5 13.9" fill="none" stroke="#c7a03e" stroke-linecap="round" stroke-linejoin="round" stroke-width="1.0"/>
      <path d="M2.6 11.05 Q5.75 9.4 8.85 7.7" fill="none" stroke="#fcfcfc" stroke-linecap="round" stroke-linejoin="round" stroke-width="1.0"/>
      <path d="M5.25 11.25 Q5.75 9.4 7.25 8.15 8.75 6.9 12.45 4.3" fill="none" stroke="#b87f41" stroke-linecap="round" stroke-linejoin="round" stroke-width="1.0"/>
      <path d="M5.0 11.95 Q5.85 10.1 8.85 7.7 13.6 3.95 15.6 0.0" fill="none" stroke="#fffbdb" stroke-linecap="round" stroke-linejoin="round" stroke-width="1.0"/>
      <path d="M6.5 20.3 Q12.45 19.5 13.85 17.05 L16.0 12.7" fill="none" stroke="#820000" stroke-linecap="round" stroke-linejoin="round" stroke-width="1.0"/>
      <path d="M5.35 13.45 Q6.6 16.8 9.0 15.45 11.75 13.8 14.25 8.7 16.0 5.05 15.5 0.8" fill="none" stroke="#7a3f26" stroke-linecap="round" stroke-linejoin="round" stroke-width="1.0"/>
    </g>
    <g id="shape3" transform="matrix(1.0, 0.0, 0.0, 1.0, 6.95, 17.35)">
      <path d="M11.3 -13.75 L8.7 -14.7 8.7 -16.4 Q10.35 -15.7 11.8 -14.4 L11.3 -13.75 M11.85 -14.35 L12.45 -13.8 14.8 -10.75 12.9 -12.75 11.75 -13.5 11.85 -14.35 M-3.9 -13.75 L-3.85 -12.9 Q-5.65 -11.6 -6.95 -9.5 -6.05 -11.45 -4.25 -13.4 L-3.9 -13.75 M3.95 -17.35 L4.1 -17.35 Q6.55 -17.35 8.65 -16.4 L7.9 -14.9 4.85 -15.25 3.95 -17.35 M3.8 -17.35 L3.25 -15.2 0.0 -14.75 -0.8 -16.05 -0.8 -14.5 Q-2.2 -14.05 -3.35 -13.25 L-3.75 -13.9 Q-0.4 -17.25 3.8 -17.35" fill="#000000" fill-rule="evenodd" stroke="none"/>
      <path d="M6.65 12.3 Q6.65 14.95 4.05 14.95 1.4 14.95 1.4 12.3 1.4 9.7 4.05 9.7 6.65 9.7 6.65 12.3" fill="#c7a600" fill-rule="evenodd" stroke="none"/>
      <path d="M6.05 12.3 Q6.05 14.3 4.05 14.3 2.05 14.3 2.05 12.3 2.05 10.3 4.05 10.3 6.05 10.3 6.05 12.3" fill="#fcfcfc" fill-rule="evenodd" stroke="none"/>
      <path d="M3.85 13.95 L4.0 13.85 3.6 13.7 Q3.25 13.35 3.35 12.9 3.5 12.45 5.4 11.75 5.5 13.65 3.85 13.95" fill="#deaa00" fill-rule="evenodd" stroke="none"/>
    </g>
  </defs>
</svg>
